svgs/esun_bank.svg

<svg width="192" height="192" viewBox="0 0 192 192" fill="none" xmlns="http://www.w3.org/2000/svg">
<path d="M47.3425 105.019C52.5618 100.006 54.2725 99.8357 60.7778 96.0522L64.6321 93.6119C64.9666 93.4 65.2798 93.156 65.5669 92.8833L66.4009 92.0911C67.2345 91.2994 68.2777 90.7612 69.4044 90.5327C72.135 89.9789 73.9805 89.57 75.3879 89.1721C76.7626 88.7834 77.8458 87.7724 78.5113 86.5083L81.3952 81.0304C82.7168 78.52 85.5984 77.2568 88.3402 77.9859L91.2049 78.7477C92.2039 79.0134 93.2565 79.0005 94.2487 78.7106C96.2256 78.1328 98.3603 78.6741 99.8233 80.1239L105.804 86.0511L111.681 91.569M144.658 110.192C133.878 106.069 128.459 102.8 117.698 92.0196C116.08 90.3988 113.51 90.19 111.681 91.569M97.4525 99.5009C100.995 95.7485 101.68 93.2217 111.681 91.569M170 96C170 136.869 136.869 170 96 170C55.1309 170 22 136.869 22 96C22 55.1309 55.1309 22 96 22C136.869 22 170 55.1309 170 96Z" stroke="black" stroke-width="12" stroke-linecap="round"/>
</svg>

<svg xmlns="http://www.w3.org/2000/svg" width="192" height="192" fill="none" viewBox="0 0 192 192"><path stroke="#000" stroke-linecap="round" stroke-width="12" d="M47.343 105.019c5.219-5.013 6.93-5.183 13.435-8.967l3.854-2.44q.503-.319.935-.729l.834-.792a6.13 6.13 0 0 1 3.003-1.558c2.731-.554 4.577-.963 5.984-1.36 1.375-.39 2.458-1.4 3.123-2.665l2.884-5.478a6.08 6.08 0 0 1 6.945-3.044l2.865.762a5.66 5.66 0 0 0 3.044-.037 5.66 5.66 0 0 1 5.574 1.413l5.981 5.927 5.877 5.518m32.977 18.623c-10.78-4.123-16.199-7.392-26.96-18.172-1.618-1.621-4.188-1.83-6.017-.451m-14.228 7.932c3.542-3.752 4.227-6.28 14.228-7.932M170 96c0 40.869-33.131 74-74 74s-74-33.131-74-74 33.13-74 74-74 74 33.13 74 74Z"/></svg>
